!!!OTL: ICH WOLLT EINMAL RECHT FRUEH AUFSTEHN
!!!ARE: Europa, Mitteleuropa, Deutschland
!!!SCT: F0886
!!!YEM: Copyright 1995, estate of Helmut Schaffrath.
**kern
*ICvox
*Ivox
*M3/4
*k[b-]
*F:
=1
{4c
4f
8g
8b-
=2
4a
4g
4f}
=3
{4cc
8dd
8cc
8b-
8a
=4
4a
4g
4r}
=5
{4c
4f
8g
8b-
=6
4a
4g
4f}
=7
{4cc
8dd
8cc
8b-
8a
=8
4a
4g
4r}
=9
{8.cc
16b-
4a
4cc
=10
8dd
8cc
8b-
8a
4b-}
=11
{8.b-
16a
4g
4b-
=12
8cc
8b-
8a
8g
4a}
=13
{8dd
16cc
16b-
4a
4g
=14
2f
4r}
==
!!!AGN: erzaehlendes Volks - Lied, Ballade, Tod
!!!ONB: ESAC (Essen Associative Code) Database: FINK
!!!AMT: simple triple
!!!AIN: vox
!!!EED: Helmut Schaffrath
!!!EEV: 1.0
*-
